!!! OTL: Berkowitz314
!!! Chapter: 1
!!! Section: III
!!! Page: 76
!!! Mode: 
!!! Encoder: DJB
**kern
*staff1
*I"Piano
=1-
*clefG2
*k[b-e-]
*B-:
*met(c)
*M4/4
4r
4r
8en/L
8f/
8g/
8f/J
=2
4b-\
4d/
4e-/
4g/
=3
4B-/
4A/
8en/L
8f/
8g/
8f/J
=4
4cc\
4a/
8f/L
8c/
8f/
8e-/J
=5
2d/
8f#/L
8g/
8a/
8g/J
=6
4cc\
4e-/
8en/L
8f/
8g/
8f/J
=7
!!linebreak:original
4b-\
4d/
8c/L
8d/
8e-/
8f/J
=8
4g/
4e-/
4a/
4f/
=9
2b-\
2r
==
*-
